X:49
T:Bonnie Blue Flag
M:6/8
L:1/8
K:G
%%MIDI channel 1
%%MIDI program 72
%%MIDI transpose 8
%%MIDI grace 1/8
%%MIDI ratio 3 1
d|B2B B2B|c2c c2c|d2d B2G|A3-A2 d|g2g f2g|e2d B2G|A2G G2F|G3-G2::
d|Lg3-g2 d|Lf3-f2 d|e2e f2e|d3-d2 d|g2d d2d|f2e d2c|B2c B2A|G3-G2:|
